X:17
T:Miss Brown's Fancy
T:Planxty Browne
R:set dance
C:Turlough O'Carolan (1670-1738) or Nathaniel Gow (1763-1831)
Z:id:hn-setdance-17
M:6/8
L:1/8
K:G
g | dBG GAB | EFE E2c | AFD DEF | G2G G2g |
dBG Bcd | EFE E2c | AFD DEF |1 G3 G2 :|2 GBA Gga ||
|: bgb afd | efg gfe | dBg dBG | AFD Dga |
bgb afd | efg gfe | faf ge^c | d3 de=f |
ece dBd | cAc BdB | Ace dBG | FAF DEF |
GAB EFG | ABc def | gdB cAF |1 G3 Gga :|2 G3 G2 ||
<end>
<start>
